X:1
T:Title
%%score ( 1 2 ) { 3 | 4 }
L:1/8
Q:1/4=102
M:3/4
K:Bb
V:1 treble nm="Grand Piano, Soprano"
V:2 treble 
V:3 bass nm="Choir Pad, Amersham, 77.77 D"
V:4 bass 
V:1
 [DF]2 [DF] [DFG]2 [DFB] | [EA]2 [Fe] [Fe]3 | [EG]2 [EG] [EA]2 [EG] | [DF]2 [Fd] [Fd]3 | %4
w: By~H.~W.~Fairbank,~1883 * * *||||
 [Dd]2 [Dd]d c[=EG] | [FA]2 [Fd] [Fc]3 | [Cc]2 [Dc]c B[=EG] | FA [=EG] F3 | [Fe]2 [Fe]e d[Ec] | %9
w: |||||
 dB [_DG] [=DF]3 | [Fe]2 [Fe]e d[Fc] | dc [FB] [Fc]3 | [Fd]2 [Fd] [FG]2 [=EG] | [Ec]2 [Ec] [EF]3 | %14
w: |||||
 [DF]2 [DF] [DFG]2 [FB] | [Ec]2 [Fd] [DB]3 |[M:4/4] [DB][Ec] [Fd]4 [DB]2 | [FA][FB] [Gc]4 [EG]2 | %18
w: ||||
 [Gc][Gd] [Ge]2 [Ge]2 [Fd]2 | [Fc]2 [Fd]6 | [DB][Ec] [Fd]4 [DB]2 | [FA][FB] [Gc]4 [Ge]2 | %22
w: ||||
 [Ge][Ge] [Fd]2 [DB]2 [Ec]2- | [Ec][Fd] [DB]6- | [DB]2 z2 z4 |] %25
w: |||
V:2
 x6 | x6 | x6 | x6 | z2 z .=E3 | x6 | z2 z .=E3 | x6 | z2 z .F3 | D2 z2 z2 | z2 z .F3 | F2 z2 z2 | %12
 x6 | x6 | x6 | x6 |[M:4/4] x8 | x8 | x8 | x8 | x8 | x8 | x8 | x8 | x8 |] %25
V:3
 F,2 F, G,2 F, | F,2 A, A,3 | B,2 B, C2 A, | B,2 D D3 | B,2 B, B,2 C | C2 B, A,3 | G,2 A, B,2 B, | %7
 A,C B, A,3 | C2 C A,2 A, | F,2 =E, F,3 | C2 C A,2 A, | B,2 B, A,3 | G,2 G, G,2 G, | G,2 G, C3 | %14
 B,2 B, D2 D | A,2 A, B,3 |[M:4/4] B,B, B,4 B,2 | B,B, B,4 B,2 | B,=B, C2 G,2 A,2 | A,2 B,6 | %20
 B,B, B,4 B,2 | B,B, B,4 C2 | B,B, B,2 B,2 A,2- | A,F, F,6- | F,2 z2 z4 |] %25
V:4
 B,,2 B,, B,,2 B,, | C,2 F, F,3 | F,2 F, F,2 F, | z2 B, B,3 | G,2 G, C,2 C, | F,2 F, F,3 | %6
 [C,=E,]2 [C,F,] [C,G,]2 C, | F,2 C, F,3 | A,2 A, F,2 F, | B,,2 B,, B,,3 | A,2 A, F,2 F, | %11
 z2 D, F,3 | =B,,2 B,, C,2 C, | B,,2 B,, A,,3 | B,,2 B,, B,2 B, | F,2 F, B,,3 |[M:4/4] z8 | %17
 D,D, E,4 E,2 | E,D, C,2 C,2 F,2 | F,2 B,,6 | z8 | D,D, E,4 C,2 | E,E, F,2 F,2 F,2- | F, z B,,6- | %24
 B,,2 z2 z4 |] %25

